X:569
T: PETERSILJE SUPPENKRAUT
N: E1872
O: Europa, Mitteleuropa, Deutschland, Sachsen, Dresden
R: Kinder - Lied, Tanz, Ringelreihen
M: 2/4
L: 1/8
K: G
 | GGGB | GGD2 |
GGGB | G2Dz |
GGGB | GGD2 |
GGGB | G2Dz |
GGD2 | GGD2 |
GGAA | DDGz

@@@ Tune index: 5253
